X:55
T: Road to Ballinakill
S: Mike/Mary Rafferty
Z: B.Black
R: jig
M: 6/8
Q: 1/4=165
L: 1/8
K: G
A | BAB GBd | ede Gce | dBd dBG | FAF DFA |
BAB GBd | ede Gce | dBG DFA | BGG G2 :|
A | B2 d gdB | c2 e gec | B2 d gdB | Agf edc |
B2 d gdB | c2 e gec | BdB cAF | AGF G2 :|
